!!!SOCIAL_FUNCTION:	dream songs
!!!PDT:	1909
!!!OTL: No_120_Song_of_the_Deserted_Warrior.krn
!!!REG: Great_Lakes
!!!LANG: Non-Tone
!!!LING_GROUP: Algonquin
**kern	**kern
*staff2	*staff1
*clefF4	*clefF4
*k[]	*k[]
*M3/4	*M3/4
8r	4A\
8GG/	.
=1	=1
12GG^/	2A\
12r	.
12GG/	.
12GG^/	.
12r	.
12GG/	.
12GG^/	4A\
12r	.
12GG/	.
=2	=2
2.r	4c\
.	4c\
.	4c\
=3	=3
2.r	4A\
.	4.A\
.	8F\
=4	=4
2.r	4.A\
.	8.A\
.	8.G\
=5	=5
2.r	2E\
.	4C/
=6	=6
2.r	4.E\
.	8.C/
.	8.C/
=7	=7
2.r	2C/
.	4C/
=8	=8
2.r	4C/
.	2C/
==	==
*-	*-
